!!!!SEGMENT: pl-kozmzk--mzk-m-346--049_walczynski-franciszek--cantantibus-organis-allegro.krn
!!!cenid: 18xx:2844
!!!COM: Walczyński, Franciszek
!!!COM-rismID: pe30021989
!!!CDT: ~1852-1937
!!!CNT: Polish
!!!GTL: Cantantibus organis op. 10
!!!OTL: 49. Allegro
!!!PDT: 1898
!!!AGN: Secular
!!!SMS-siglum: PL-KOZmzk
!!!SMS-shelfmark: mzk/m/346
!!!SMS-shelfwork: 049 G
!!!SMS-variant:
!!!SMS-altvar:
!!!NIFC-rismSourceID: 1001109651
!!!NIFC-islandoraID: pl-kozmzk:7453
!!!URL-pdf-islandora: https://repozytorium.nifc.pl/islandora/object/pl-kozmzk%3A7453/datastream/PDF/view
!!!URL-scan: https://polish.musicsources.pl/pl/lokalizacje/galeria/druki-muzyczne/7581 @EN{Scan on Polish Music Sources Website} @PL{Skany w portalu Dziedzictwo Muzyki Polskiej w otwartym dostępie}
!!!ONB-nifc:
!!!OMD: Allegro.
!!!AIN: 1 empty 1 organ
!!!key:
**kern	**kern	**dynam
*part2	*part1	*part1
*staff2	*staff1	*
*Iorgan	*Iempty	*
*I"[Organo]	*	*
*I'Org.	*I'Org.	*
*clefF4	*clefG2	*
*k[b-e-a-]	*k[b-e-a-]	*
*c:	*c:	*
*M4/4	*M4/4	*
*met(c)	*met(c)	*
=1	=1	=1
[<1ee->\ [1cc>\	(8gg/L	<
.	8aa-/	.
.	8gg/	.
.	8ff#X/J	.
.	8gg/L	.
.	8ccc/	.
.	8bb-/	.
.	8aa-/J	.
=2	=2	=2
2ee->\] 2cc>\]	8gg/L	.
.	8aa-/	[
.	8gg/	.
.	8ff#X/J	>
2dd>\ 2bn>\	4gg/	.
.	4ffn/)	]]
=3	=3	=3
(<8cc>\L	(>2ee-/ 2cc/	.
8b->\	.	.
8a->\	.	.
8g>\J	.	.
8f/L	2dd/	.
8f#X/	.	.
8g/	.	.
8fn/J)	.	.
=4	=4	=4
*	*^	*
!	!	!	!LO:DY:a
(8e-\L	8cc/L	4.g\	f <
8Bn\	8dd/	.	.
8c\	8ee-/	.	.
8A-\J	8ff/J	8cc\	.
8G\L	4gg/)	4bn\	.
8F\	.	.	.
8E-\	4rg	4rgg	[
8D\J)	.	.	.
=5	=5	=5	=5
[1C/	(8g/L	1e-\	p
.	8a-/	.	.
.	8g/	.	<
.	8f#X/J	.	.
.	8g/L	.	.
.	8cc/	.	.
.	8b-/	.	.
.	8a-/J)	.	.
!!LO:LB:g=original
=6	=6	=6	=6
4C/]	(8g/L	2e-\	.
.	8a-/	.	.
4c\	8g/	.	[
.	8f#X/J	.	>
2Bn\	4g/	2d\	.
.	4fn/)	.	]
=7	=7	=7	=7
(8c\L	(2e-/	2.c\	]
8B-X\	.	.	.
8A-\	.	.	.
8G\J	.	.	.
8F\L	2d/	.	.
8F#X\	.	.	.
8G\	.	4Bn\	.
8Fn\J	.	.	.
=8	=8	=8	=8
8E-/L	8c/L	8c\	f
8BBn/	8d/	4.G\	.
8C/	8e-/	.	<
8BB-X/J	8en/J	.	.
8AA-/L	8f/L	4.c\	.
8GG/	8g/	.	.
8FF/	8a-/	.	.
8FF#X/J)	8an/J	[8e-X\	[[
=9	=9	=9	=9
*	*	*	*^
4GG/	4g/)	(2e-\]	<	.
4AA-/	[2cc/	.	.	.
!	!	!	!	!LO:DY:rj
4FFn/	.	4d\	.	ff
4GG/	4bn/	8g\L	[	.
.	.	[8f\J	.	.
*	*	*	*v	*v
=10	=10	=10	=10
1CC/;<	1cc/;]	8f\L]	>
.	.	8e-\	.
.	.	8d\	.
.	.	8f\J	.
.	.	2e-;\)	]
*	*v	*v	*
==	==	==
*-	*-	*-
!!!system-decoration: {(s1,s2)}
!!!RDF**kern: > = above
!!!RDF**kern: < = below
!!!ENC: Andrzej Gręziak
!!!END: 2021-07-28
